X:4642
T:East Bay Reel
R:Reel
C:Bruce Osborne  --  Apr.20 1994
L:1/16
M:2/4
K:D
|:ag|f2df Adfd|gece d2FG|AFDF AFDF|EFED E2de|
f2df Adfd|gece d2FG|AFDF AFDF|(3EFE DCD2:|
K:A
|:CD|EFED CEAc|ecfc ecA2|ecfc ecA2|EEcE B2CD|
EFED CEAc|ecfc ecA2|ecfc ecA2|(3BcB GBA2:|
